!! 00000] TT[00
!! NN
!!!OTL: Dui hua
!!!ARE: Asia, China,ÿShandong, Liaochen
!! Ethnic Group: Han
!! III, 378
!!!SCT: C0313
!!!YEM: Copyright 1995, estate of Helmut Schaffrath.
**kern
*ICvox
*Ivox
!! Mixed meters:  2/4; 3/4
*MZ
*k[f#]
*G:
{8ee
8ee
8b
8dd
=1
4ee
8dd
8b
=2
8ee
16ee
16dd
8b
8dd
=3
8ee
8dd
8dd
8b}
=4
{8ee
8ee
8b
8dd
=5
4ee
8dd
8b
=6
8ee
8ee
8ee
8b
=7
8a
4a
8g
=8
8e
4e
8d
=9
2e}
=10
{4.ee
8dd
=11
4ee
4ee
=12
8ee
16ee
16dd
8b
8dd
=13
4ee
8dd
8b}
=14
{8b
8e
8g
8a
=15
8b
8b
8b
8b
=16
8dd
8b
8a
8g
=17
8e
4e
8d
=18
2e}
=19
{4.g
8a
=20
8b
8a
4b
=21
8b
8b
8a
8g
=22
8e
4e
8d
=23
2e}
=24
{8.g
16a
8b
8b
=25
8a
8g
4f#
=26
8e
4e
8d
=27
2e}
=28
{8ee
8ee
8b
8dd
=29
4ee
8dd
8b
=30
8ee
16ee
16dd
8b
8dd
=31
8ee
8dd
8dd
8b}
=32
{8b
8b
8b
8b
=33
8b
8b
8a
8g
=34
8e
4e
8d
=35
2e}
=36
{8ee
16ee
16dd
8b
8dd
=37
4ee
8dd
8b
=38
8ee
16ee
16dd
8b
8dd
=39
8ee
8dd
8dd
8b}
=40
{8b
8b
4b
=41
8b
8b
8b
8b
=42
8dd
8b
8e
4e
8d
=43
*M2/4
2e}
=44
{8.b
16dd
4ee
=45
8.b
16dd
8ee
8r
=46
8.ee
16dd
8b
8dd
=47
8ee
8dd
8dd
8b}
=48
{8.b
16b
8a
8g
=49
4e
8e
8g
=50
8.b
16b
8a
8g
=51
4e}
{8e
8g
=52
4b
8a
8g
=53
4e
4e}
=54
{4.g
8a
=55
4b
4b
=56
4a
8dd
8f#
=57
8e
4e
8d
=58
2e}
==
!!!AGN: Xiaodiao. Siji huahui
!! Voellig anders als andere Dui Hua.
!!    Diese Sammlung enthaelt mit Stand 1987 wenigstens 32 Aufnahmen
!!    mit dem Titel "Dui hua"
!!    C0046, C0495, C0136
!!    Einige Verzierungen. Phrasierung in Phrase 11/12 ueberpruefen!
!!!ONB: ESAC (Essen Associative Code) Database: CHINA
!!!AMT: irregular
!!!AIN: vox
!!!EED: Helmut Schaffrath
!!!EEV: 1.0
*-
